packages/symbols/svgs/outline/graduation-cap-outline.svg

<svg width="24" height="24" viewBox="0 0 24 24" fill="none" xmlns="http://www.w3.org/2000/svg">
<path fill-rule="evenodd" clip-rule="evenodd" d="M23 10C23.5523 10 24 10.4477 24 11V16C24 16.5523 23.5523 17 23 17C22.4477 17 22 16.5523 22 16V11C22 10.4477 22.4477 10 23 10Z" fill="black"/>
<path fill-rule="evenodd" clip-rule="evenodd" d="M11.5528 2.10557C11.8343 1.96481 12.1657 1.96481 12.4472 2.10557L22.4472 7.10557C22.786 7.27496 23 7.62123 23 8C23 8.37877 22.786 8.72504 22.4472 8.89443L12.4472 13.8944C12.1657 14.0352 11.8343 14.0352 11.5528 13.8944L1.55279 8.89443C1.214 8.72504 1 8.37877 1 8C1 7.62123 1.214 7.27496 1.55279 7.10557L11.5528 2.10557ZM4.23607 8L12 11.882L19.7639 8L12 4.11803L4.23607 8Z" fill="black"/>
<path fill-rule="evenodd" clip-rule="evenodd" d="M5 8.5C5.55228 8.5 6 8.94772 6 9.5V18C6 18.0761 6.03175 18.2322 6.26185 18.4654C6.4962 18.7028 6.88489 18.9625 7.44416 19.2022C8.55913 19.6801 10.1692 20 12 20C13.8308 20 15.4409 19.6801 16.5558 19.2022C17.1151 18.9625 17.5038 18.7028 17.7382 18.4654C17.9683 18.2322 18 18.0761 18 18V9.5C18 8.94772 18.4477 8.5 19 8.5C19.5523 8.5 20 8.94772 20 9.5V18C20 18.7524 19.64 19.3855 19.1617 19.8702C18.6876 20.3506 18.0511 20.7373 17.3437 21.0405C15.9251 21.6484 14.0352 22 12 22C9.96483 22 8.07487 21.6484 6.65634 21.0405C5.94886 20.7373 5.31242 20.3506 4.83834 19.8702C4.36 19.3855 4 18.7524 4 18V9.5C4 8.94772 4.44772 8.5 5 8.5Z" fill="black"/>
</svg>

<svg width="24" height="24" viewBox="0 0 24 24" xmlns="http://www.w3.org/2000/svg"><path fill-rule="evenodd" clip-rule="evenodd" d="M23 10a1 1 0 0 1 1 1v5a1 1 0 1 1-2 0v-5a1 1 0 0 1 1-1ZM11.553 2.106a1 1 0 0 1 .894 0l10 5a1 1 0 0 1 0 1.788l-10 5a1 1 0 0 1-.894 0l-10-5a1 1 0 0 1 0-1.788l10-5ZM4.236 8 12 11.882 19.764 8 12 4.118 4.236 8Z"/><path fill-rule="evenodd" clip-rule="evenodd" d="M5 8.5a1 1 0 0 1 1 1V18c0 .076.032.232.262.465.234.238.623.497 1.182.737C8.56 19.68 10.17 20 12 20s3.44-.32 4.556-.798c.56-.24.948-.5 1.182-.737.23-.233.262-.389.262-.465V9.5a1 1 0 1 1 2 0V18c0 .752-.36 1.386-.838 1.87-.474.48-1.11.867-1.818 1.17-1.419.608-3.309.96-5.344.96s-3.925-.352-5.344-.96c-.707-.303-1.344-.69-1.818-1.17C4.36 19.385 4 18.752 4 18V9.5a1 1 0 0 1 1-1Z"/></svg>
